Sources/FrostedUI/Resources/Icons.xcassets/eyeSlashed20.imageset/eye-slashed-20.svg

<svg width="20" height="20" viewBox="0 0 20 20" fill="none" xmlns="http://www.w3.org/2000/svg" data-fui-icon="true">
  <path
    d="M16.7195 2.21973C17.0123 1.92696 17.4871 1.92704 17.78 2.21973C18.0728 2.5126 18.0728 2.9874 17.78 3.28027L13.3083 7.75098C13.7449 8.39184 13.9998 9.16613 13.9998 10C13.9998 12.2091 12.2088 13.9999 9.99976 14C9.1661 13.9999 8.39244 13.744 7.75171 13.3076L3.28003 17.7803C2.98714 18.073 2.51232 18.073 2.21948 17.7803C1.92683 17.4874 1.92683 17.0126 2.21948 16.7197L6.69116 12.2471C6.25533 11.6065 5.99976 10.8332 5.99976 10C5.99976 7.79098 7.79079 6.0002 9.99976 6C10.8328 6.00003 11.6063 6.25563 12.2468 6.69141L16.7195 2.21973ZM16.4304 6.04688C16.7444 5.77689 17.2179 5.81303 17.488 6.12695C18.7977 7.64962 19.6253 9.11444 19.8523 9.53516C20.0101 9.82778 20.0101 10.1722 19.8523 10.4648C19.5942 10.9433 18.5478 12.794 16.8894 14.5352C15.2453 16.2612 12.8838 17.9999 9.99976 18C8.79482 17.9999 7.67909 17.6953 6.67358 17.2178C6.29952 17.04 6.14044 16.5919 6.31812 16.2178C6.4959 15.844 6.94317 15.6849 7.31714 15.8623C8.15699 16.2612 9.05358 16.4999 9.99976 16.5C12.2695 16.4999 14.2616 15.1197 15.8035 13.501C17.1184 12.1204 18.0191 10.6515 18.3914 9.99902C18.0735 9.44199 17.3703 8.28916 16.3513 7.10449C16.0814 6.79046 16.1165 6.31693 16.4304 6.04688ZM9.99976 2C11.2046 2.00002 12.3205 2.30476 13.3259 2.78223C13.7 2.95996 13.86 3.40811 13.6824 3.78223C13.5046 4.15618 13.0564 4.31528 12.6824 4.1377C11.8425 3.73885 10.946 3.50002 9.99976 3.5C7.73017 3.50014 5.73877 4.88045 4.19702 6.49902C2.88231 7.87928 1.98059 9.34724 1.60815 10C1.92575 10.5567 2.62957 11.7101 3.64917 12.8955C3.91889 13.2095 3.88292 13.6831 3.56909 13.9531C3.25508 14.2228 2.78147 14.1869 2.51147 13.873C1.20164 12.3502 0.373978 10.8852 0.147217 10.4648C-0.0106421 10.1722 -0.0106418 9.82782 0.147217 9.53516L0.486084 8.94238C0.967009 8.13843 1.86701 6.77094 3.11108 5.46484C4.75512 3.73887 7.11586 2.00014 9.99976 2ZM8.84448 12.2148C9.19024 12.3956 9.58258 12.4999 9.99976 12.5C11.3804 12.4999 12.4998 11.3807 12.4998 10C12.4998 9.58272 12.3954 9.19057 12.2146 8.84473L8.84448 12.2148ZM9.99976 7.5C8.61921 7.5002 7.49976 8.61941 7.49976 10C7.49976 10.4167 7.60361 10.8088 7.78394 11.1543L11.155 7.7832C10.8095 7.60283 10.4165 7.50002 9.99976 7.5Z"
    fill="currentColor"
  />
</svg>

<svg xmlns="http://www.w3.org/2000/svg" width="20" height="20" fill="none" data-fui-icon="true" viewBox="0 0 20 20"><path fill="currentColor" d="M16.72 2.22a.75.75 0 0 1 1.06 1.06l-4.472 4.471a4 4 0 0 1-5.557 5.557L3.28 17.78a.75.75 0 0 1-1.06-1.06l4.471-4.473a4 4 0 0 1 5.556-5.556zm-.29 3.827a.75.75 0 0 1 1.058.08 20.3 20.3 0 0 1 2.364 3.408.97.97 0 0 1 0 .93 20.2 20.2 0 0 1-2.963 4.07C15.245 16.261 12.884 18 10 18c-1.204 0-2.32-.305-3.325-.782a.75.75 0 0 1 .643-1.356c.84.4 1.737.638 2.683.638 2.27 0 4.262-1.38 5.804-2.999 1.314-1.38 2.215-2.85 2.587-3.502a19 19 0 0 0-2.04-2.895.75.75 0 0 1 .08-1.057M10 2c1.205 0 2.32.305 3.326.782a.751.751 0 0 1-.644 1.356c-.84-.4-1.736-.638-2.682-.638-2.27 0-4.261 1.38-5.803 2.999C2.882 7.879 1.981 9.347 1.608 10c.318.557 1.022 1.71 2.041 2.896a.75.75 0 0 1-1.138.977 20.3 20.3 0 0 1-2.364-3.408.97.97 0 0 1 0-.93l.34-.593c.48-.804 1.38-2.171 2.624-3.477C4.755 3.739 7.116 2 10 2M8.844 12.215a2.5 2.5 0 0 0 3.37-3.37zM10 7.5a2.5 2.5 0 0 0-2.216 3.654l3.371-3.37A2.5 2.5 0 0 0 10 7.5"/></svg>
